build/images/jury/planet.svg

<svg width="31" height="31" viewBox="0 0 31 31" fill="none" xmlns="http://www.w3.org/2000/svg">
<g clip-path="url(#clip0_500_1156)">
<path d="M26.4597 4.53942C23.9238 2.00271 20.5867 0.423823 17.0171 0.07181C13.4474 -0.280203 9.86621 0.616435 6.8836 2.60894C3.90099 4.60144 1.70155 7.56652 0.660081 10.9989C-0.381392 14.4313 -0.20046 18.1187 1.17205 21.4326C2.54455 24.7466 5.0237 27.4821 8.18706 29.173C11.3504 30.8639 15.0022 31.4056 18.5202 30.7058C22.0382 30.0061 25.2047 28.1081 27.4802 25.3353C29.7556 22.5625 30.9992 19.0864 30.999 15.4995C31.0015 13.4637 30.6017 11.4475 29.8227 9.56663C29.0438 7.68576 27.9009 5.97732 26.4597 4.53942V4.53942ZM0.977094 15.9852H4.46224C4.50305 18.4896 5.0062 20.9649 5.94637 23.2865H3.23314C1.84006 21.099 1.06084 18.5772 0.977094 15.9852V15.9852ZM20.6738 15.0152C20.6607 12.5667 20.4365 10.1239 20.0036 7.7139H24.0016C24.9951 10.0221 25.5269 12.5026 25.5671 15.0152H20.6738ZM11.2941 15.0152C11.3036 12.5661 11.5306 10.1228 11.9725 7.7139H19.0146C19.4571 10.1227 19.6841 12.5661 19.6929 15.0152H11.2941ZM19.7052 15.9852C19.6963 18.4343 19.4693 20.8777 19.0268 23.2865H11.9779C11.5361 20.8776 11.3091 18.4342 11.2996 15.9852H19.7052ZM19.8055 6.74527C19.6482 6.02898 19.4705 5.35746 19.2778 4.73884C18.8261 3.29269 18.2712 2.11922 17.6417 1.30253C19.5342 1.89945 21.2354 3.2642 22.569 5.15532C22.9242 5.66221 23.2464 6.19148 23.5335 6.73985L19.8055 6.74527ZM18.354 5.02644C18.5208 5.55959 18.6741 6.1348 18.8139 6.74527H12.1827C12.3184 6.1348 12.4758 5.55959 12.6426 5.02644C13.4295 2.51942 14.4401 0.968807 15.4997 0.968807C16.5592 0.968807 17.5726 2.51942 18.3553 5.02644H18.354ZM11.7188 4.73884C11.5302 5.35746 11.3498 6.02898 11.191 6.74527H7.46035C7.74858 6.19494 8.07213 5.66385 8.42898 5.15532C9.7666 3.2642 11.461 1.89945 13.3548 1.30253C12.7254 2.11922 12.1719 3.29269 11.7188 4.73884ZM10.9943 7.7139C10.5613 10.1238 10.3375 12.5667 10.3255 15.0152H5.43222C5.4717 12.5025 6.00358 10.0219 6.99775 7.7139H10.9943ZM4.46224 15.0152H0.977094C1.05901 12.4236 1.83636 9.90181 3.22772 7.7139H5.94095C5.00264 10.0358 4.50132 12.5111 4.46224 15.0152V15.0152ZM5.43222 15.9852H10.3255C10.3375 18.4337 10.5613 20.8765 10.9943 23.2865H6.99775C6.00371 20.9784 5.47184 18.4979 5.43222 15.9852V15.9852ZM11.191 24.2605C11.3498 24.9768 11.5261 25.6483 11.7188 26.267C12.1719 27.7131 12.7254 28.8852 13.3548 29.7033C11.4556 29.1077 9.76253 27.7416 8.42898 25.845C8.07213 25.3365 7.74858 24.8054 7.46035 24.2551L11.191 24.2605ZM12.6426 25.9794C12.4758 25.4462 12.3225 24.871 12.1827 24.2605H18.8152C18.6796 24.871 18.5222 25.4462 18.3553 25.9794C17.5726 28.4864 16.5578 30.037 15.5064 30.037C14.4551 30.037 13.4295 28.481 12.6426 25.9739V25.9794ZM19.2792 26.267C19.4718 25.6483 19.6495 24.9768 19.8069 24.2605H23.5335C23.2464 24.8089 22.9242 25.3382 22.569 25.845C21.2354 27.7443 19.5369 29.1077 17.6431 29.7033C18.2726 28.8798 18.8274 27.7077 19.2792 26.2615V26.267ZM20.0036 23.2919C20.4365 20.8819 20.6607 18.4391 20.6738 15.9906H25.5671C25.5268 18.5032 24.995 20.9836 24.0016 23.2919H20.0036ZM26.5357 15.9906H30.0222C29.9396 18.5822 29.1618 21.104 27.7702 23.2919H25.057C25.996 20.9683 26.4973 18.4911 26.5357 15.9852V15.9906ZM26.5357 15.0206C26.4949 12.5162 25.9917 10.0409 25.0516 7.71932H27.7648C29.1566 9.90713 29.9344 12.429 30.0168 15.0206H26.5357ZM25.7747 5.22451C26.2498 5.70056 26.6918 6.20867 27.0974 6.74527H24.6161C24.255 5.99938 23.8349 5.28353 23.3599 4.60453C22.694 3.64416 21.8967 2.78199 20.9912 2.04325C22.7809 2.77596 24.4069 3.85737 25.7747 5.22451ZM5.2233 5.22451C6.59069 3.85695 8.2168 2.77548 10.0067 2.04325C9.10123 2.78199 8.3039 3.64416 7.63807 4.60453C7.163 5.28353 6.74292 5.99938 6.38185 6.74527H3.9006C4.30617 6.20867 4.74811 5.70056 5.2233 5.22451V5.22451ZM5.2233 25.7759C4.74811 25.2998 4.30617 24.7917 3.9006 24.2551H6.38185C6.74292 25.001 7.163 25.7168 7.63807 26.3958C8.30392 27.3558 9.10125 28.2175 10.0067 28.9558C8.21687 28.224 6.59074 27.143 5.2233 25.7759V25.7759ZM25.7747 25.7759C24.4072 27.143 22.7811 28.224 20.9912 28.9558C21.8967 28.2175 22.694 27.3558 23.3599 26.3958C23.8349 25.7168 24.255 25.001 24.6161 24.2551H27.0974C26.6918 24.7917 26.2498 25.2998 25.7747 25.7759V25.7759Z" fill="white"/>
</g>
<defs>
<clipPath id="clip0_500_1156">
<rect width="31" height="31" fill="white"/>
</clipPath>
</defs>
</svg>

<svg width="31" height="31" fill="none" xmlns="http://www.w3.org/2000/svg"><g clip-path="url(#clip0_500_1156)"><path d="M26.46 4.54a15.503 15.503 0 104.539 10.96 15.455 15.455 0 00-4.54-10.96zM.977 15.984h3.485c.041 2.505.544 4.98 1.484 7.302H3.233a14.462 14.462 0 01-2.256-7.302zm19.697-.97a42.586 42.586 0 00-.67-7.301h3.998a19.247 19.247 0 011.565 7.301h-4.893zm-9.38 0c.01-2.449.237-4.892.678-7.301h7.043a41.23 41.23 0 01.678 7.301h-8.399zm8.411.97a41.24 41.24 0 01-.678 7.302h-7.05a41.364 41.364 0 01-.677-7.302h8.405zm.1-9.24a24.273 24.273 0 00-.527-2.006c-.452-1.446-1.007-2.62-1.636-3.436 1.892.596 3.593 1.961 4.927 3.852a14.4 14.4 0 01.965 1.585l-3.729.005zm-1.451-1.719c.167.534.32 1.109.46 1.72h-6.631a20.79 20.79 0 01.46-1.72C13.43 2.52 14.44.97 15.5.97c1.06 0 2.073 1.55 2.855 4.057h-.001zm-6.635-.287c-.189.618-.37 1.29-.528 2.006h-3.73c.288-.55.611-1.081.968-1.59 1.338-1.89 3.032-3.256 4.926-3.852-.63.816-1.183 1.99-1.636 3.436zm-.725 2.975a42.464 42.464 0 00-.668 7.301H5.431a19.22 19.22 0 011.566-7.301h3.996zm-6.532 7.301H.977c.082-2.591.86-5.113 2.25-7.301h2.714a20.334 20.334 0 00-1.479 7.301zm.97.97h4.893a42.47 42.47 0 00.67 7.302H6.997a19.225 19.225 0 01-1.566-7.302zm5.759 8.276a24.9 24.9 0 00.528 2.006c.453 1.446 1.006 2.618 1.636 3.436-1.9-.595-3.592-1.961-4.926-3.858-.357-.508-.68-1.04-.969-1.59l3.731.006zm1.452 1.718a22.902 22.902 0 01-.46-1.718h6.632a21.01 21.01 0 01-.46 1.718c-.782 2.507-1.797 4.058-2.849 4.058-1.05 0-2.076-1.556-2.863-4.063v.005zm6.636.288c.193-.619.37-1.29.528-2.006h3.727c-.288.548-.61 1.077-.965 1.584-1.334 1.9-3.032 3.263-4.926 3.858.63-.823 1.184-1.995 1.636-3.441v.005zm.725-2.975c.432-2.41.657-4.853.67-7.301h4.893a19.25 19.25 0 01-1.565 7.3h-3.998zm6.532-7.301h3.486a14.463 14.463 0 01-2.252 7.3h-2.713a20.34 20.34 0 001.479-7.306v.006zm0-.97a20.335 20.335 0 00-1.484-7.302h2.713a14.459 14.459 0 012.252 7.302h-3.481zm-.761-9.796c.475.476.917.984 1.322 1.52h-2.48a15.572 15.572 0 00-1.257-2.14 12.491 12.491 0 00-2.369-2.562 14.581 14.581 0 014.784 3.182zm-20.552 0a14.56 14.56 0 014.784-3.182 12.49 12.49 0 00-2.369 2.562 15.562 15.562 0 00-1.256 2.14H3.9a14.69 14.69 0 011.322-1.52zm0 20.55a14.699 14.699 0 01-1.322-1.52h2.48a15.56 15.56 0 001.257 2.14 12.44 12.44 0 002.369 2.56 14.558 14.558 0 01-4.784-3.18zm20.552 0a14.559 14.559 0 01-4.784 3.18 12.44 12.44 0 002.369-2.56 15.57 15.57 0 001.256-2.14h2.481a14.713 14.713 0 01-1.322 1.52z" fill="#fff"/></g><defs><clipPath id="clip0_500_1156"><path fill="#fff" d="M0 0h31v31H0z"/></clipPath></defs></svg>
